X: 1553
T: Angry Peeler, The
R: jig
M: 6/8
K: Gmajor
BdB GED|B,DD GDD|GBG AGE|ABA ABc|
BdB GED|B,DD GDD|GBG AGE|GAG G2A:|
|:B2A Bcd|ege dBA|~G3 AGE|ABA ABc|
B2A Bcd|ege dBA|~G3 AGE|GAG G2A:|

